X:96
M:4/4
L:1/4
K:D
(D3/2 E/) | F D F/G/ A | B2 A2 | A D C D- | D2 (D3/2 E/) | F D F/G/ A | B2 A2 | A D C D- | D2 A2 | d B c d/c/ | B3 A | F/E/ D F G | A3 !sintro!d | A3/2 A/ B/A/ G/F/ | E B A D | C D2 !eintro!|]
